X:1
T:Buxtehude - Aria:  La Capricciosa in G Minor.
%%score { ( 1 4 ) | ( 2 3 ) }
L:1/8
Q:1/4=100
M:4/4
K:G
V:1 treble nm="Harpsichord" snm="Hch."
V:4 treble 
V:2 bass 
V:3 bass 
V:1
"^Partita 13" d/4g/4f/4e/4d/4c/4B/4A/4 B/4c/4d/4c/4B/4A/4G/4=F/4 E/4c/4B/4A/4G/4F/4E/4D/4 E/4F/4G/4F/4E/4D/4C/4B,/4 | %1
 A,/4D/4C/4B,/4[I:staff +1]A,/4G,/4F,/4E,/4[I:staff -1] x2 | z2 z/4 D/4E/4F/4G/4A/4B/4c/4 | %3
 B2 z/4 c/4d/4c/4B/4A/4G/4=F/4 E2 z/4 d/4e/4d/4c/4B/4A/4G/4 | %4
 F2 z/4 B/4A/4G/4F/4E/4D/4C/4 G3[Q:1/4=50] G ::[Q:1/4=100] B/4c/4d/4c/4B/4c/4A/4c/4 B2 | %6
 c/4d/4e/4d/4c/4d/4B/4d/4 c2 | A/4B/4c/4B/4A/4B/4G/4A/4 F2 z/4 d/4c/4d/4B/4g/4A/4f/4 g2 | %8
 z/4 d/4e/4f/4g/4a/4b/- b2 z/4 a/4g/4=f/4e/4d/4c/4B/8A/8 e/>d/c/4B/4A/4G/4 | %9
 B2 z/ A/4G/<PF/G/4 G/B,/D/G/ D/MB,/ z :| %10
V:2
!f! B,2 D2 C3 G, | F, x F,/4G,/4A,/4G,/4F,/4E,/4D,/ | G,,/4A,,/4B,,/4C,/4D,/4E,/4F,/4G,/4 G,,2 | %3
 z/4 D,/4E,/4F,/4G,/4A,/4B,/4C/4 B,2 C,/4D,/4E,/4=F,/4G,/4A,/4B,/4C/4 A,,2 | %4
 D,/4E,/4F,/4G,/4A,/4B,/4C/4D/4 D,2 B,3 B, :: G,2 G,/4A,/4B,/4A,/4G,/4A,/4=F,/4G,/4 | %6
 E,2 A,/4B,/4C/4B,/4A,/4B,/4G,/4A,/4 | %7
 F,2 D,/4D/4C/4D/4B,/4C/4A,/4B,/4 G,2 z/4 G,/4A,/4B,/4C/4D/4E/4F/4 | G2 x2 C3 E | %9
 D-D/4C,/4D,/4C,,/4 D,,2 x2 z G, :| %10
V:3
 G,2 G,2 z2 C,2 | D,2 D,,3/2- D,,/8C,/8B,,/8A,,/8 | x4 | x2 G,2 x4 | %4
 x4 G,,/4G,/4F,/4E,/4D,/4G,/4B,,/4D,/4 G,,/4B,,/4D,/4G,/4G,, :: x4 | x4 | x8 | x8 | x4 G,,4 :| %10
V:4
 x8 | x4 | x4 | x2 D2 x4 | x4 D3 D :: x4 | x4 | x8 | x3/2 z/4 f/4 z/4 G/4A/4B/4c/4d/4e/4f/8g/8 x4 | %9
 z/4 A/4G/4F/4G x6 :| %10

